build/images/g30.svg

<svg width="138" height="138" viewBox="0 0 138 138" fill="none" xmlns="http://www.w3.org/2000/svg">
<circle cx="69" cy="69" r="69" fill="#76BD5E"/>
<path d="M41.5234 102.836C45.1932 102.836 48.7806 101.748 51.8319 99.7089C54.8832 97.6701 57.2614 94.7723 58.6657 91.3818C60.0701 87.9914 60.4375 84.2607 59.7216 80.6614C59.0057 77.0622 57.2385 73.756 54.6436 71.1611C52.0487 68.5662 48.7425 66.799 45.1433 66.0831C41.544 65.3672 37.8133 65.7346 34.4229 67.139C31.0324 68.5433 28.1346 70.9215 26.0958 73.9728C24.057 77.0241 22.9687 80.6115 22.9688 84.2813C22.9743 89.2006 24.9309 93.9168 28.4094 97.3953C31.8879 100.874 36.6041 102.83 41.5234 102.836ZM41.5234 71.6641C44.0189 71.6641 46.4583 72.4041 48.5332 73.7904C50.6081 75.1768 52.2252 77.1474 53.1802 79.4529C54.1352 81.7584 54.385 84.2953 53.8982 86.7428C53.4114 89.1902 52.2097 91.4384 50.4451 93.203C48.6806 94.9675 46.4324 96.1692 43.9849 96.656C41.5374 97.1428 39.0005 96.893 36.695 95.938C34.3896 94.9831 32.419 93.3659 31.0326 91.291C29.6462 89.2161 28.9062 86.7767 28.9062 84.2813C28.91 80.9361 30.2406 77.7291 32.6059 75.3637C34.9713 72.9984 38.1783 71.6679 41.5234 71.6641Z" fill="white"/>
<path d="M74.9219 84.2813C74.9219 87.951 76.0101 91.5384 78.0489 94.5897C80.0877 97.641 82.9856 100.019 86.376 101.424C89.7664 102.828 93.4971 103.195 97.0964 102.479C100.696 101.763 104.002 99.9963 106.597 97.4014C109.192 94.8065 110.959 91.5003 111.675 87.9011C112.391 84.3018 112.023 80.5711 110.619 77.1807C109.214 73.7903 106.836 70.8924 103.785 68.8536C100.734 66.8148 97.1463 65.7266 93.4766 65.7266C88.5573 65.7321 83.841 67.6888 80.3625 71.1672C76.8841 74.6457 74.9274 79.3619 74.9219 84.2813ZM93.4766 71.6641C95.972 71.6641 98.4114 72.404 100.486 73.7904C102.561 75.1768 104.178 77.1474 105.133 79.4529C106.088 81.7584 106.338 84.2952 105.851 86.7427C105.364 89.1902 104.163 91.4384 102.398 93.2029C100.634 94.9675 98.3856 96.1692 95.9381 96.656C93.4906 97.1428 90.9537 96.893 88.6482 95.938C86.3427 94.9831 84.3721 93.3659 82.9858 91.291C81.5994 89.2161 80.8594 86.7767 80.8594 84.2813C80.8632 80.9361 82.1937 77.7291 84.559 75.3637C86.9244 72.9984 90.1314 71.6678 93.4766 71.6641Z" fill="white"/>
<path d="M78.9875 39.7827C82.4807 39.7827 85.3124 36.9509 85.3124 33.4577C85.3124 29.9646 82.4807 27.1328 78.9875 27.1328C75.4944 27.1328 72.6626 29.9646 72.6626 33.4577C72.6626 36.9509 75.4944 39.7827 78.9875 39.7827Z" fill="white"/>
<path d="M55.431 65.4112L64.5313 74.3898V90.961H70.4688V73.7692C70.4672 73.1796 70.3493 72.5961 70.1219 72.0521C69.8944 71.5082 69.5619 71.0145 69.1433 70.5993L59.6295 61.2128L71.9597 48.8827L82.752 59.9322C83.1677 60.3556 83.6634 60.6922 84.2102 60.9225C84.7571 61.1528 85.3443 61.2721 85.9377 61.2735H91.2501V55.336H86.5628L69.4021 37.7669L69.314 37.853L67.7554 36.2944L46.9741 57.0757L55.3709 65.4724L55.431 65.4112Z" fill="white"/>
</svg>

<svg width="138" height="138" fill="none" xmlns="http://www.w3.org/2000/svg"><circle cx="69" cy="69" r="69" fill="#76BD5E"/><path d="M41.523 102.836a18.553 18.553 0 0018.199-22.175 18.555 18.555 0 00-36.753 3.62 18.575 18.575 0 0018.554 18.555zm0-31.172a12.618 12.618 0 11-12.617 12.617 12.632 12.632 0 0112.617-12.617zm33.399 12.617a18.555 18.555 0 1018.555-18.554A18.576 18.576 0 0074.922 84.28zm18.555-12.617a12.615 12.615 0 0112.374 15.079 12.615 12.615 0 01-17.203 9.195 12.616 12.616 0 01-7.789-11.657 12.632 12.632 0 0112.618-12.617zm-14.49-31.881a6.325 6.325 0 100-12.65 6.325 6.325 0 000 12.65z" fill="#fff"/><path d="M55.431 65.411l9.1 8.979v16.57h5.938V73.769a4.484 4.484 0 00-1.326-3.17l-9.514-9.386 12.33-12.33 10.793 11.05a4.481 4.481 0 003.186 1.34h5.312v-5.937h-4.687l-17.16-17.57-.089.087-1.559-1.559-20.78 20.782 8.396 8.396.06-.06z" fill="#fff"/></svg>
